X:4915
L:1/16
Q:1/8=90
M:3/8
K:Bb
 BdfdBd | cfAcFA | BdfdBd | c2F2f2 | geeccA | fddBBG | eccAAF | fcgcac | (fg) =e4 | f4 z2 | 
 fcgcac | (fg) =e4 | f6 :: cFAcfe | dfBdGB | EGcBAG | ^F4 d2 | gddBBG | eccedc | (Bc) A4 | G6 | 
 BddffB | AccffA | GBBeeB | AFBFcF | dFeFfF | BdfdBe | (dc) c2>B2 | B6 :|

